X:87
T:Englands Glory JC.117
R:hp 16 reel
C:Trad arr. P J Headford
S:John Clare (1793-1864)
O:Northampton MS.12 Deacon 117
A:Northamptonshire
B:ISBN.0-86300-008-8
Z:P Headford
R:reel 24
M:2/2
L:1/8
Q:1/4=120
K:G
d|gfgd cBAG|FGAB cAAf|gfgd cBAG|DGAc BGGd|
gfgd cBAG|FGAB cAAf|gfgd cBAG|DGAc BGG||
|:z|DGBG DGBG|DGBG cAAB|DGBG DGBG|dedB BGGB|
DGBG DGBG|DGBG cAAB|cdef gedc|BdAc BGG:|]

